;FLAVOR:Marlin
;TIME:9229
;Filament used: 5.86924m
;Layer height: 0.2
;MINX:82.25
;MINY:65.555
;MINZ:0.2
;MAXX:144.456
;MAXY:161.74
;MAXZ:75
;Generated with Cura_SteamEngine 4.10.0
M140 S85
M105
M190 S85
M104 S235
M105
M109 S235
M82 ;absolute extrusion mode
; Ender 3 Custom Start G-code
G92 E0 ; Reset Extruder
G28 ; Home all axes
M117 Auto bed-level GO!
G29 ; Auto bed-level (BL-Touch)
G92 E0 ; Reset Extruder
G1 Z2.0 F3000 ; Move Z Axis up little to prevent scratching of Heat Bed
G1 X0.1 Y20 Z0.3 F5000.0 ; Move to start position
G1 X0.1 Y200.0 Z0.3 F1500.0 E15 ; Draw the first line
G1 X0.4 Y200.0 Z0.3 F5000.0 ; Move to side a little
G1 X0.4 Y20 Z0.3 F1500.0 E30 ; Draw the second line
G92 E0 ; Reset Extruder
G1 Z2.0 F3000 ; Move Z Axis up little to prevent scratching of Heat Bed
G1 X5 Y20 Z0.3 F5000.0 ; Move over to prevent blob squish
G92 E0
G92 E0
G1 F3000 E-9
;LAYER_COUNT:375
;LAYER:0
M107
G1 F300 Z0.4
G0 F3000 X86.98 Y69.435 Z0.4
;TYPE:SKIRT
G1 F300 Z0.2
G1 F3000 E0.41575
G1 F600 X87.617 Y68.747 E0.44538
G1 X88.31 Y68.115 E0.47501
G1 X89.055 Y67.545 E0.50465
G1 X89.845 Y67.04 E0.53428
G1 X90.676 Y66.604 E0.56393
G1 X91.54 Y66.241 E0.59354
G1 X92.433 Y65.952 E0.6232
G1 X93.346 Y65.741 E0.65281
G1 X94.275 Y65.608 E0.68246
G1 X95.211 Y65.555 E0.71208
G1 X96.223 Y65.587 E0.74407
G1 X97.154 Y65.699 E0.7737
G1 X97.975 Y65.866 E0.80018
G1 X98.292 Y65.943 E0.81048
G1 X98.543 Y66.007 E0.81867
G1 X108.97 Y68.802 E1.15976
G1 X109.657 Y68.997 E1.18233
G1 X110.547 Y69.291 E1.21194
G1 X111.409 Y69.66 E1.24157
G1 X112.237 Y70.102 E1.27123
G1 X113.024 Y70.612 E1.30086
G1 X113.485 Y70.958 E1.31907
G1 X113.76 Y71.176 E1.33016
G1 X115.798 Y72.751 E1.41154
G1 X117.866 Y74.258 E1.4924
G1 X119.925 Y75.67 E1.57128
G1 X122.037 Y77.034 E1.65072
G1 X124.18 Y78.332 E1.72989
G1 X126.362 Y79.571 E1.80917
G1 X128.721 Y80.825 E1.89359
G1 X129.792 Y81.374 E1.93161
G1 X130.607 Y81.837 E1.96123
G1 X131.381 Y82.368 E1.99089
G1 X132.106 Y82.962 E2.0205
G1 X132.777 Y83.617 E2.05013
G1 X133.568 Y84.555 E2.0889
G1 X134.002 Y85.133 E2.11174
G1 X135.593 Y87.188 E2.19386
G1 X137.164 Y89.105 E2.27217
G1 X138.833 Y91.026 E2.35258
G1 X140.079 Y92.375 E2.4106
G1 X140.644 Y93 E2.43723
G1 X141.243 Y93.722 E2.46687
G1 X141.778 Y94.493 E2.49652
G1 X142.245 Y95.306 E2.52614
G1 X142.642 Y96.156 E2.55579
G1 X142.878 Y96.777 E2.57678
G1 X143.265 Y97.899 E2.61428
G1 X143.749 Y99.394 E2.66393
G1 X143.962 Y100.085 E2.68678
G1 X144.2 Y100.992 E2.71641
G1 X144.359 Y101.916 E2.74603
G1 X144.449 Y103.144 E2.78494
G1 X144.455 Y103.593 E2.79913
G1 X144.456 Y104.346 E2.82292
G1 X144.448 Y105.148 E2.84826
G1 X144.399 Y106.084 E2.87788
G1 X144.27 Y107.013 E2.90751
G1 X143.968 Y108.256 E2.94793
G1 X143.647 Y109.3 E2.98244
G1 X143.081 Y111.038 E3.0402
G1 X142.844 Y111.732 E3.06337
G1 X142.503 Y112.606 E3.09301
G1 X142.089 Y113.447 E3.12263
G1 X141.605 Y114.251 E3.15228
G1 X141.054 Y115.01 E3.18192
G1 X140.572 Y115.577 E3.20543
G1 X138.811 Y117.514 E3.28815
G1 X137.113 Y119.49 E3.37047
G1 X135.557 Y121.406 E3.44846
G1 X134.012 Y123.424 E3.52876
G1 X132.559 Y125.435 E3.60715
G1 X131.119 Y127.553 E3.68808
G1 X129.788 Y129.637 E3.76621
G1 X128.466 Y131.839 E3.84736
G1 X127.247 Y134.007 E3.92595
G1 X126.081 Y136.226 E4.00516
G1 X124.963 Y138.507 E4.08542
G1 X123.929 Y140.777 E4.16424
G1 X122.942 Y143.116 E4.24445
G1 X122.022 Y145.478 E4.32455
G1 X121.192 Y147.816 E4.40294
G1 X120.424 Y150.177 E4.48139
G1 X119.78 Y152.417 E4.55503
G1 X119.659 Y152.778 E4.56706
G1 X119.389 Y153.733 E4.59842
G1 X119.096 Y154.624 E4.62806
G1 X118.728 Y155.487 E4.6577
G1 X118.287 Y156.315 E4.68734
G1 X117.778 Y157.102 E4.71696
G1 X117.204 Y157.844 E4.7466
G1 X116.568 Y158.533 E4.77623
G1 X115.876 Y159.166 E4.80586
G1 X115.133 Y159.738 E4.83549
G1 X114.343 Y160.245 E4.86515
G1 X113.513 Y160.682 E4.89479
G1 X112.65 Y161.047 E4.92439
G1 X111.758 Y161.337 E4.95403
G1 X110.844 Y161.55 E4.98368
G1 X109.916 Y161.685 E5.01331
G1 X108.98 Y161.74 E5.04294
G1 X108.042 Y161.715 E5.07259
G1 X107.11 Y161.61 E5.10222
G1 X106.256 Y161.442 E5.12972
G1 X105.983 Y161.377 E5.13859
G1 X105.688 Y161.302 E5.14821
G1 X104.88 Y161.085 E5.17464
G1 X104.173 Y160.884 E5.19787
G1 X103.283 Y160.589 E5.2275
G1 X102.421 Y160.22 E5.25712
G1 X101.593 Y159.778 E5.28678
G1 X100.806 Y159.268 E5.31641
G1 X100.066 Y158.692 E5.34604
G1 X99.377 Y158.055 E5.37569
G1 X98.745 Y157.362 E5.40533
G1 X98.174 Y156.618 E5.43496
G1 X97.669 Y155.828 E5.46459
G1 X97.233 Y154.998 E5.49421
G1 X96.869 Y154.133 E5.52386
G1 X96.581 Y153.241 E5.55348
G1 X96.369 Y152.327 E5.58313
G1 X96.236 Y151.399 E5.61275
G1 X96.182 Y150.463 E5.64237
G1 X96.209 Y149.525 E5.67202
G1 X96.26 Y148.984 E5.68919
G1 X96.419 Y147.664 E5.7312
G1 X96.428 Y147.532 E5.73538
G1 X96.528 Y146.738 E5.76067
G1 X96.771 Y144.241 E5.83994
G1 X96.944 Y141.725 E5.91962
G1 X97.046 Y139.206 E5.99928
G1 X97.077 Y136.714 E6.07803
G1 X97.035 Y134.144 E6.15924
G1 X96.926 Y131.677 E6.23727
G1 X96.741 Y129.142 E6.31758
G1 X96.49 Y126.664 E6.39628
G1 X96.163 Y124.145 E6.47654
G1 X95.764 Y121.64 E6.55669
G1 X95.308 Y119.212 E6.63475
G1 X94.761 Y116.701 E6.71595
G1 X94.173 Y114.316 E6.79357
G1 X93.488 Y111.849 E6.87447
G1 X92.758 Y109.48 E6.95279
G1 X91.938 Y107.065 E7.03338
G1 X91.066 Y104.717 E7.11252
G1 X90.119 Y102.372 E7.19243
G1 X89.115 Y100.076 E7.27161
G1 X88.044 Y97.801 E7.35106
G1 X86.904 Y95.551 E7.43076
G1 X85.7 Y93.33 E7.51058
G1 X84.429 Y91.137 E7.59067
G1 X83.985 Y90.409 E7.61762
G1 X83.77 Y90.044 E7.631
G1 X83.329 Y89.216 E7.66064
G1 X82.96 Y88.354 E7.69027
G1 X82.666 Y87.463 E7.71992
G1 X82.448 Y86.551 E7.74954
G1 X82.31 Y85.624 E7.77916
G1 X82.25 Y84.688 E7.80879
G1 X82.271 Y83.75 E7.83844
G1 X82.343 Y83.015 E7.86177
G1 X82.564 Y81.831 E7.89983
G1 X82.644 Y81.503 E7.9105
G1 X82.706 Y81.263 E7.91833
G1 X84.569 Y74.311 E8.14574
G1 X84.787 Y73.541 E8.17103
G1 X85.082 Y72.651 E8.20066
G1 X85.452 Y71.789 E8.2303
G1 X85.893 Y70.962 E8.25991
G1 X86.404 Y70.175 E8.28956
G1 X86.489 Y70.066 E8.29393
G0 F540 X86.98 Y69.435
G0 F3000 X87.34 Y69.63
G1 F600 X87.971 Y68.96 E8.32301
G1 X88.658 Y68.347 E8.3521
G1 X89.395 Y67.795 E8.38119
G1 X90.178 Y67.31 E8.4103
G1 X91 Y66.895 E8.43939
G1 X91.854 Y66.553 E8.46846
G1 X92.735 Y66.286 E8.49755
G1 X93.636 Y66.096 E8.52664
G1 X94.55 Y65.985 E8.55573
G1 X95.47 Y65.955 E8.58482
G1 X96.192 Y65.986 E8.60765
G1 X97.106 Y66.097 E8.63674
G1 X97.881 Y66.255 E8.66174
G1 X98.44 Y66.393 E8.67993
G1 X108.71 Y69.145 E9.01588
G1 X109.547 Y69.382 E9.04337
G1 X110.421 Y69.671 E9.07245
G1 X111.267 Y70.036 E9.10157
G1 X112.077 Y70.472 E9.13063
G1 X112.847 Y70.977 E9.15973
G1 X113.236 Y71.271 E9.17513
G1 X113.518 Y71.495 E9.18651
G1 X115.563 Y73.076 E9.26819
G1 X117.604 Y74.562 E9.34796
G1 X119.728 Y76.019 E9.42934
G1 X121.819 Y77.369 E9.50799
G1 X123.982 Y78.679 E9.58789
G1 X126.198 Y79.938 E9.66842
G1 X128.503 Y81.163 E9.7509
G1 X129.609 Y81.73 E9.79017
G1 X130.41 Y82.185 E9.81928
G1 X131.167 Y82.708 E9.84835
G1 X131.877 Y83.295 E9.87746
G1 X132.533 Y83.941 E9.90655
G1 X133.248 Y84.796 E9.94177
G1 X133.652 Y85.334 E9.96302
G1 X135.269 Y87.423 E10.04649
G1 X136.883 Y89.392 E10.12694
G1 X138.527 Y91.284 E10.20614
G1 X139.782 Y92.644 E10.26461
G1 X140.347 Y93.269 E10.29123
G1 X140.934 Y93.978 E10.32032
G1 X141.458 Y94.735 E10.34941
G1 X141.914 Y95.535 E10.3785
G1 X142.298 Y96.372 E10.4076
G1 X142.5 Y96.908 E10.4257
G1 X142.819 Y97.829 E10.45649
G1 X142.884 Y98.023 E10.46296
G1 X143.367 Y99.512 E10.51242
G1 X143.58 Y100.203 E10.53527
G1 X143.812 Y101.093 E10.56433
G1 X143.967 Y102.001 E10.59343
G1 X144.049 Y103.151 E10.62986
G1 X144.055 Y103.594 E10.64386
G1 X144.056 Y104.342 E10.6675
G1 X144.048 Y105.144 E10.69284
G1 X143.999 Y106.063 E10.72192
G1 X143.871 Y106.975 E10.75102
G1 X143.585 Y108.139 E10.78889
G1 X143.266 Y109.176 E10.82317
G1 X142.702 Y110.909 E10.88076
G1 X142.465 Y111.603 E10.90393
G1 X142.13 Y112.46 E10.933
G1 X141.722 Y113.285 E10.96208
G1 X141.244 Y114.072 E10.99118
G1 X140.699 Y114.814 E11.02027
G1 X140.277 Y115.308 E11.0408
G1 X138.477 Y117.288 E11.12535
G1 X136.814 Y119.222 E11.20594
G1 X135.244 Y121.157 E11.28467
G1 X133.703 Y123.17 E11.36478
G1 X132.22 Y125.222 E11.44478
G1 X130.784 Y127.334 E11.52547
G1 X129.451 Y129.421 E11.60372
G1 X128.133 Y131.616 E11.68462
G1 X126.887 Y133.832 E11.76495
G1 X125.725 Y136.043 E11.84387
G1 X124.598 Y138.344 E11.92482
G1 X123.555 Y140.634 E12.00433
G1 X122.585 Y142.933 E12.08318
G1 X121.642 Y145.354 E12.16527
G1 X120.81 Y147.696 E12.2438
G1 X120.038 Y150.068 E12.32262
G1 X119.395 Y152.306 E12.3962
G1 X119.276 Y152.662 E12.40806
G1 X119.004 Y153.624 E12.43964
G1 X118.716 Y154.499 E12.46875
G1 X118.352 Y155.345 E12.49785
G1 X117.917 Y156.156 E12.52693
G1 X117.412 Y156.926 E12.55603
G1 X116.843 Y157.65 E12.58512
G1 X116.213 Y158.321 E12.6142
G1 X115.528 Y158.936 E12.64329
G1 X114.791 Y159.488 E12.67239
G1 X114.01 Y159.975 E12.70147
G1 X113.189 Y160.392 E12.73056
G1 X112.335 Y160.736 E12.75965
G1 X111.454 Y161.004 E12.78875
G1 X110.554 Y161.196 E12.81783
G1 X109.64 Y161.308 E12.84692
G1 X108.72 Y161.341 E12.87601
G1 X107.801 Y161.293 E12.90509
G1 X106.889 Y161.167 E12.93418
G1 X106.349 Y161.053 E12.95162
G1 X106.076 Y160.988 E12.96048
G1 X105.792 Y160.916 E12.96974
G1 X104.989 Y160.7 E12.99602
G1 X104.282 Y160.499 E13.01924
G1 X103.409 Y160.209 E13.04831
G1 X102.563 Y159.844 E13.07742
G1 X101.753 Y159.408 E13.10649
G1 X100.983 Y158.902 E13.1356
G1 X100.26 Y158.332 E13.16469
G1 X99.59 Y157.701 E13.19377
G1 X98.976 Y157.015 E13.22286
G1 X98.425 Y156.277 E13.25196
G1 X97.94 Y155.495 E13.28104
G1 X97.524 Y154.674 E13.31012
G1 X97.181 Y153.819 E13.33923
G1 X96.914 Y152.938 E13.36831
G1 X96.724 Y152.037 E13.39741
G1 X96.613 Y151.123 E13.4265
G1 X96.581 Y150.203 E13.45559
G1 X96.657 Y149.032 E13.49267
G1 X96.812 Y147.749 E13.5335
G1 X96.825 Y147.583 E13.53876
G1 X96.925 Y146.795 E13.56386
G1 X97.17 Y144.272 E13.64395
G1 X97.345 Y141.735 E13.72431
G1 X97.446 Y139.227 E13.80362
G1 X97.477 Y136.712 E13.88309
G1 X97.435 Y134.161 E13.9637
G1 X97.323 Y131.631 E14.04372
G1 X97.139 Y129.109 E14.12362
G1 X96.886 Y126.605 E14.20314
G1 X96.561 Y124.102 E14.2829
G1 X96.159 Y121.574 E14.36378
G1 X95.698 Y119.125 E14.44252
G1 X95.156 Y116.634 E14.52307
G1 X94.558 Y114.21 E14.60196
G1 X93.872 Y111.74 E14.68295
G1 X93.13 Y109.328 E14.76269
G1 X92.316 Y106.933 E14.84262
G1 X91.441 Y104.576 E14.92206
G1 X90.492 Y102.227 E15.00211
G1 X89.478 Y99.908 E15.08208
G1 X88.398 Y97.615 E15.16217
G1 X87.255 Y95.358 E15.24211
G1 X86.055 Y93.145 E15.32165
G1 X84.769 Y90.928 E15.40263
G1 X84.33 Y90.206 E15.42933
G1 X84.115 Y89.841 E15.44272
G1 X83.682 Y89.028 E15.47182
G1 X83.322 Y88.181 E15.5009
G1 X83.037 Y87.305 E15.53001
G1 X82.828 Y86.409 E15.55908
G1 X82.699 Y85.497 E15.58818
G1 X82.649 Y84.578 E15.61726
G1 X82.678 Y83.658 E15.64635
G1 X82.74 Y83.067 E15.66512
G1 X82.953 Y81.926 E15.7018
G1 X83.092 Y81.366 E15.72003
G1 X84.999 Y74.255 E15.95266
G1 X85.171 Y73.651 E15.9725
G1 X85.462 Y72.777 E16.00161
G1 X85.827 Y71.932 E16.03069
G1 X86.264 Y71.122 E16.05977
G1 X86.769 Y70.352 E16.08887
G1 X86.844 Y70.257 E16.09269
G0 F540 X87.34 Y69.63
G0 F3000 X87.699 Y69.826
G1 F600 X88.325 Y69.174 E16.12125
G1 X89.005 Y68.581 E16.14976
G1 X89.735 Y68.049 E16.1783
G1 X90.509 Y67.584 E16.20683
G1 X91.322 Y67.19 E16.23538
G1 X92.166 Y66.869 E16.26391
G1 X93.035 Y66.624 E16.29244
G1 X93.923 Y66.457 E16.32099
G1 X94.821 Y66.369 E16.3495
G1 X96.161 Y66.385 E16.39184
G1 X97.058 Y66.494 E16.42039
G1 X97.787 Y66.643 E16.4439
G1 X98.104 Y66.72 E16.45421
G1 X98.336 Y66.78 E16.46178
G1 X108.751 Y69.572 E16.80248
G1 X109.438 Y69.767 E16.82505
G1 X110.295 Y70.051 E16.85358
G1 X111.124 Y70.411 E16.88213
G1 X111.917 Y70.842 E16.91065
G1 X112.988 Y71.585 E16.95184
G1 X113.254 Y71.796 E16.96257
G1 X115.328 Y73.399 E17.04539
G1 X117.371 Y74.887 E17.12525
G1 X119.507 Y76.352 E17.20709
G1 X121.6 Y77.704 E17.28582
G1 X123.798 Y79.036 E17.36703
G1 X125.977 Y80.273 E17.4462
G1 X128.339 Y81.528 E17.53071
G1 X129.427 Y82.086 E17.56935
G1 X130.211 Y82.533 E17.59786
G1 X130.953 Y83.048 E17.6264
G1 X131.647 Y83.626 E17.65494
G1 X132.287 Y84.264 E17.68349
G1 X132.928 Y85.036 E17.7152
G1 X133.316 Y85.553 E17.73562
G1 X134.977 Y87.698 E17.82134
G1 X136.555 Y89.625 E17.90004
G1 X138.244 Y91.568 E17.98139
G1 X139.486 Y92.912 E18.03921
G1 X140.051 Y93.537 E18.06583
G1 X140.626 Y94.233 E18.09436
G1 X141.137 Y94.977 E18.12288
G1 X141.581 Y95.764 E18.15143
G1 X141.954 Y96.587 E18.17998
G1 X142.122 Y97.039 E18.19522
G1 X142.504 Y98.147 E18.23225
G1 X142.984 Y99.629 E18.28147
G1 X143.197 Y100.32 E18.30432
G1 X143.425 Y101.194 E18.33286
G1 X143.574 Y102.085 E18.3614
G1 X143.649 Y103.157 E18.39536
G1 X143.655 Y103.595 E18.4092
G1 X143.656 Y104.338 E18.43267
G1 X143.648 Y105.14 E18.45802
G1 X143.6 Y106.042 E18.48656
G1 X143.471 Y106.935 E18.51507
G1 X143.203 Y108.022 E18.55044
G1 X142.886 Y109.053 E18.58452
G1 X142.324 Y110.779 E18.64188
G1 X142.087 Y111.473 E18.66505
G1 X141.757 Y112.314 E18.69359
G1 X141.355 Y113.123 E18.72214
G1 X140.882 Y113.892 E18.75067
G1 X140.344 Y114.617 E18.77919
G1 X139.981 Y115.039 E18.79678
G1 X138.179 Y117.021 E18.88142
G1 X136.517 Y118.955 E18.96199
G1 X134.914 Y120.929 E19.04234
G1 X133.394 Y122.915 E19.12136
G1 X131.881 Y125.008 E19.20297
G1 X130.46 Y127.099 E19.28285
G1 X129.104 Y129.221 E19.36242
G1 X127.784 Y131.42 E19.44346
G1 X126.542 Y133.629 E19.52353
G1 X125.355 Y135.887 E19.60413
G1 X124.246 Y138.151 E19.68379
G1 X123.199 Y140.449 E19.76358
G1 X122.203 Y142.812 E19.84461
G1 X121.268 Y145.212 E19.92599
G1 X120.436 Y147.554 E20.00452
G1 X119.659 Y149.944 E20.08393
G1 X119.011 Y152.196 E20.15798
G1 X118.893 Y152.547 E20.16968
G1 X118.619 Y153.516 E20.20149
G1 X118.335 Y154.373 E20.23002
G1 X117.977 Y155.202 E20.25855
G1 X117.546 Y155.996 E20.2871
G1 X117.047 Y156.748 E20.31562
G1 X116.484 Y157.454 E20.34415
G1 X115.86 Y158.107 E20.37269
G1 X115.18 Y158.702 E20.40124
G1 X114.451 Y159.235 E20.42977
G1 X113.678 Y159.701 E20.45829
G1 X112.866 Y160.097 E20.48684
G1 X112.023 Y160.42 E20.51536
G1 X111.154 Y160.667 E20.54391
G1 X110.267 Y160.836 E20.57244
G1 X109.368 Y160.925 E20.60098
G1 X108.465 Y160.935 E20.62952
G1 X107.565 Y160.865 E20.65804
G1 X106.441 Y160.664 E20.69412
G1 X106.168 Y160.599 E20.70299
G1 X105.895 Y160.53 E20.71188
G1 X105.252 Y160.358 E20.73291
G1 X104.392 Y160.114 E20.76116
G1 X103.535 Y159.829 E20.7897
G1 X102.706 Y159.469 E20.81825
G1 X101.913 Y159.037 E20.84679
G1 X101.161 Y158.537 E20.87532
G1 X100.457 Y157.973 E20.90382
G1 X99.805 Y157.348 E20.93236
G1 X99.21 Y156.668 E20.96091
G1 X98.679 Y155.938 E20.98943
G1 X98.214 Y155.163 E21.01799
G1 X97.819 Y154.351 E21.04652
G1 X97.497 Y153.507 E21.07507
G1 X97.252 Y152.638 E21.10359
G1 X97.084 Y151.751 E21.13212
G1 X96.996 Y150.852 E21.16066
G1 X96.987 Y149.949 E21.18919
G1 X97.055 Y149.08 E21.21674
G1 X97.193 Y147.937 E21.25311
G1 X97.221 Y147.633 E21.26276
G1 X97.325 Y146.813 E21.28888
G1 X97.569 Y144.305 E21.3685
G1 X97.742 Y141.778 E21.44853
G1 X97.846 Y139.212 E21.52967
G1 X97.877 Y136.711 E21.60871
G1 X97.835 Y134.138 E21.69002
G1 X97.724 Y131.618 E21.76972
G1 X97.538 Y129.076 E21.85025
G1 X97.282 Y126.55 E21.93048
G1 X96.958 Y124.054 E22.01
G1 X96.554 Y121.509 E22.09142
G1 X96.089 Y119.038 E22.17087
G1 X95.549 Y116.558 E22.25107
G1 X94.938 Y114.08 E22.33171
G1 X94.264 Y111.653 E22.4113
G1 X93.508 Y109.198 E22.49247
G1 X92.694 Y106.803 E22.57239
G1 X91.811 Y104.423 E22.6526
G1 X90.859 Y102.066 E22.73292
G1 X89.842 Y99.743 E22.81305
G1 X88.759 Y97.442 E22.8934
G1 X87.614 Y95.18 E22.97351
G1 X86.41 Y92.96 E23.05331
G1 X85.106 Y90.712 E23.13542
G1 X84.674 Y90.003 E23.16166
G1 X84.459 Y89.638 E23.17504
G1 X84.036 Y88.84 E23.20358
G1 X83.685 Y88.008 E23.23211
G1 X83.408 Y87.148 E23.26066
G1 X83.209 Y86.268 E23.28917
G1 X83.089 Y85.372 E23.31773
G1 X83.048 Y84.47 E23.34626
G1 X83.134 Y83.142 E23.38831
G1 X83.341 Y82.021 E23.42433
G1 X83.421 Y81.693 E23.435
G1 X83.479 Y81.47 E23.44228
G1 X85.384 Y74.364 E23.67474
G1 X85.556 Y73.76 E23.69458
G1 X85.842 Y72.904 E23.7231
G1 X86.202 Y72.075 E23.75165
G1 X86.634 Y71.282 E23.78019
G1 X87.134 Y70.531 E23.80869
G1 X87.199 Y70.45 E23.81198
